X:161
T: Dui hua
N: C1657
O: China,Henan, Shangcheng
S: IV, 146]
R: Xiaodiao. Chang huahui]
M: 2/4
L: 1/16
K: G
g3gg2e2 | d4d4 | B3BB2A2 | G4E4 |
g3ag2e2 | d4d4 | g2B2B2A2 | G4E4 |
d4A2B2 | d4d4 |
d3dA2B2 | d4d4 |
A4d4 | d4d4 |
g3gg2g2 | e4e2d2 | e2d2g4 | B4B2A2 | B2d2A4- | A4
d4- | d4g4 | B2d2B4 | B2A2B2d2 | B4B2A2 | B2A2G2A2 | G8 |
g3gg2e2 | d4d4 | A3BA2B2 | d4d4 |
g3ag2e2 | d4d4 | B3BB2A2 | G4G4 |
e2d2e4- | e4e4 | g2B2B2A2 | G3AG2A2 | G3AG2A2 | d2B2d4 |
z4g4 | B3AG2A2 | G8

@@@ Tune index: 6716
